X:5
T:Drums and Guns
C:Roy Watrous, 1947
S:The Watrous Book, 1992
M:2/4
L:1/16
Q:1/4=90
K:Bm
%%MIDI program 72
%%MIDI transpose 8
%%MIDI ratio 3 1
F2|BFdF BFdF|Bcde f2de|fbag fede|f2fg fedc|BFdF BFdF|
Bcde f2de|fbag fede|f2f2B2::z2|a2fg a2gf|Te3f g2ef|gAfA eAfA|
gagf efdc|BFdF BFdF|Bcde f2de|fbag fede|f2f2B2:|

